images/50649057.svg

<?xml version="1.0" encoding="UTF-8"?>
<svg xmlns="http://www.w3.org/2000/svg" xmlns:xlink="http://www.w3.org/1999/xlink" width="300pt" height="300pt" viewBox="0 0 300 300" version="1.1">
<defs>
<g>
<symbol overflow="visible" id="glyph0-0">
<path style="stroke:none;" d="M 0.546875 1.9375 L 0.546875 -7.75 L 6.046875 -7.75 L 6.046875 1.9375 Z M 1.171875 1.328125 L 5.4375 1.328125 L 5.4375 -7.140625 L 1.171875 -7.140625 Z M 1.171875 1.328125 "/>
</symbol>
<symbol overflow="visible" id="glyph0-1">
<path style="stroke:none;" d="M 4.328125 -7.28125 C 3.546875 -7.28125 2.921875 -6.984375 2.453125 -6.390625 C 1.992188 -5.804688 1.765625 -5.007812 1.765625 -4 C 1.765625 -2.988281 1.992188 -2.1875 2.453125 -1.59375 C 2.921875 -1.007812 3.546875 -0.71875 4.328125 -0.71875 C 5.117188 -0.71875 5.742188 -1.007812 6.203125 -1.59375 C 6.660156 -2.1875 6.890625 -2.988281 6.890625 -4 C 6.890625 -5.007812 6.660156 -5.804688 6.203125 -6.390625 C 5.742188 -6.984375 5.117188 -7.28125 4.328125 -7.28125 Z M 4.328125 -8.171875 C 5.453125 -8.171875 6.351562 -7.789062 7.03125 -7.03125 C 7.707031 -6.28125 8.046875 -5.269531 8.046875 -4 C 8.046875 -2.738281 7.707031 -1.726562 7.03125 -0.96875 C 6.351562 -0.21875 5.453125 0.15625 4.328125 0.15625 C 3.203125 0.15625 2.300781 -0.21875 1.625 -0.96875 C 0.957031 -1.71875 0.625 -2.726562 0.625 -4 C 0.625 -5.269531 0.957031 -6.28125 1.625 -7.03125 C 2.300781 -7.789062 3.203125 -8.171875 4.328125 -8.171875 Z M 4.328125 -8.171875 "/>
</symbol>
<symbol overflow="visible" id="glyph0-2">
<path style="stroke:none;" d="M 1.078125 -8.015625 L 2.171875 -8.015625 L 2.171875 -4.734375 L 6.109375 -4.734375 L 6.109375 -8.015625 L 7.1875 -8.015625 L 7.1875 0 L 6.109375 0 L 6.109375 -3.8125 L 2.171875 -3.8125 L 2.171875 0 L 1.078125 0 Z M 1.078125 -8.015625 "/>
</symbol>
<symbol overflow="visible" id="glyph0-3">
<path style="stroke:none;" d="M 1.078125 -8.015625 L 2.546875 -8.015625 L 6.09375 -1.3125 L 6.09375 -8.015625 L 7.15625 -8.015625 L 7.15625 0 L 5.6875 0 L 2.125 -6.703125 L 2.125 0 L 1.078125 0 Z M 1.078125 -8.015625 "/>
</symbol>
<symbol overflow="visible" id="glyph1-0">
<path style="stroke:none;" d="M 0.453125 1.59375 L 0.453125 -6.34375 L 4.953125 -6.34375 L 4.953125 1.59375 Z M 0.953125 1.09375 L 4.453125 1.09375 L 4.453125 -5.84375 L 0.953125 -5.84375 Z M 0.953125 1.09375 "/>
</symbol>
<symbol overflow="visible" id="glyph1-1">
<path style="stroke:none;" d="M 1.734375 -0.75 L 4.828125 -0.75 L 4.828125 0 L 0.65625 0 L 0.65625 -0.75 C 1 -1.09375 1.457031 -1.554688 2.03125 -2.140625 C 2.613281 -2.734375 2.984375 -3.113281 3.140625 -3.28125 C 3.421875 -3.601562 3.613281 -3.875 3.71875 -4.09375 C 3.832031 -4.320312 3.890625 -4.539062 3.890625 -4.75 C 3.890625 -5.101562 3.769531 -5.390625 3.53125 -5.609375 C 3.289062 -5.828125 2.972656 -5.9375 2.578125 -5.9375 C 2.296875 -5.9375 2 -5.882812 1.6875 -5.78125 C 1.382812 -5.6875 1.054688 -5.539062 0.703125 -5.34375 L 0.703125 -6.25 C 1.054688 -6.382812 1.390625 -6.488281 1.703125 -6.5625 C 2.015625 -6.644531 2.300781 -6.6875 2.5625 -6.6875 C 3.238281 -6.6875 3.78125 -6.515625 4.1875 -6.171875 C 4.59375 -5.828125 4.796875 -5.375 4.796875 -4.8125 C 4.796875 -4.539062 4.742188 -4.28125 4.640625 -4.03125 C 4.535156 -3.789062 4.351562 -3.507812 4.09375 -3.1875 C 4.019531 -3.101562 3.785156 -2.859375 3.390625 -2.453125 C 2.992188 -2.046875 2.441406 -1.476562 1.734375 -0.75 Z M 1.734375 -0.75 "/>
</symbol>
</g>
</defs>
<g id="surface9481">
<rect x="0" y="0" width="300" height="300" style="fill:rgb(100%,100%,100%);fill-opacity:1;stroke:none;"/>
<path style="fill:none;stroke-width:1.2;stroke-linecap:butt;stroke-linejoin:miter;stroke:rgb(100%,0%,0%);stroke-opacity:1;stroke-miterlimit:10;" d="M 200.378906 195.175781 L 188.296875 189.757812 "/>
<path style="fill:none;stroke-width:1.2;stroke-linecap:butt;stroke-linejoin:miter;stroke:rgb(0%,0%,0%);stroke-opacity:1;stroke-miterlimit:10;" d="M 188.296875 189.757812 L 176.21875 184.34375 "/>
<path style=" stroke:none;fill-rule:nonzero;fill:rgb(100%,100%,100%);fill-opacity:1;" d="M 192.378906 188.675781 L 209.378906 188.675781 L 209.378906 201.675781 L 192.378906 201.675781 Z M 192.378906 188.675781 "/>
<g style="fill:rgb(100%,0%,0%);fill-opacity:1;">
  <use xlink:href="#glyph0-1" x="192.378906" y="198.577148"/>
  <use xlink:href="#glyph0-2" x="200.779297" y="198.577148"/>
</g>
<path style="fill:none;stroke-width:1.2;stroke-linecap:butt;stroke-linejoin:miter;stroke:rgb(0%,0%,0%);stroke-opacity:1;stroke-miterlimit:10;" d="M 176.21875 184.34375 L 154.761719 199.851562 "/>
<path style="fill:none;stroke-width:1.2;stroke-linecap:butt;stroke-linejoin:miter;stroke:rgb(0%,0%,0%);stroke-opacity:1;stroke-miterlimit:10;" d="M 170.425781 180.847656 L 153.261719 193.25 "/>
<path style="fill:none;stroke-width:1.2;stroke-linecap:butt;stroke-linejoin:miter;stroke:rgb(0%,0%,0%);stroke-opacity:1;stroke-miterlimit:10;" d="M 173.519531 158.007812 L 176.21875 184.34375 "/>
<path style="fill:none;stroke-width:1.2;stroke-linecap:butt;stroke-linejoin:miter;stroke:rgb(0%,0%,0%);stroke-opacity:1;stroke-miterlimit:10;" d="M 154.761719 199.851562 L 130.605469 189.019531 "/>
<path style="fill:none;stroke-width:1.2;stroke-linecap:butt;stroke-linejoin:miter;stroke:rgb(0%,0%,0%);stroke-opacity:1;stroke-miterlimit:10;" d="M 130.605469 189.019531 L 127.90625 162.683594 "/>
<path style="fill:none;stroke-width:1.2;stroke-linecap:butt;stroke-linejoin:miter;stroke:rgb(0%,0%,0%);stroke-opacity:1;stroke-miterlimit:10;" d="M 136.53125 185.75 L 134.371094 164.683594 "/>
<path style="fill:none;stroke-width:1.2;stroke-linecap:butt;stroke-linejoin:miter;stroke:rgb(0%,0%,0%);stroke-opacity:1;stroke-miterlimit:10;" d="M 127.90625 162.683594 L 115.828125 157.269531 "/>
<path style="fill:none;stroke-width:1.2;stroke-linecap:butt;stroke-linejoin:miter;stroke:rgb(0%,0%,100%);stroke-opacity:1;stroke-miterlimit:10;" d="M 115.828125 157.269531 L 103.75 151.855469 "/>
<path style="fill:none;stroke-width:1.2;stroke-linecap:butt;stroke-linejoin:miter;stroke:rgb(0%,0%,0%);stroke-opacity:1;stroke-miterlimit:10;" d="M 127.90625 162.683594 L 149.363281 147.179688 "/>
<path style="fill:none;stroke-width:1.2;stroke-linecap:butt;stroke-linejoin:miter;stroke:rgb(0%,0%,100%);stroke-opacity:1;stroke-miterlimit:10;" d="M 103.75 151.855469 L 92.269531 158.445312 "/>
<path style="fill:none;stroke-width:1.2;stroke-linecap:butt;stroke-linejoin:miter;stroke:rgb(0%,0%,0%);stroke-opacity:1;stroke-miterlimit:10;" d="M 92.269531 158.445312 L 80.789062 165.03125 "/>
<path style="fill:none;stroke-width:1.2;stroke-linecap:butt;stroke-linejoin:miter;stroke:rgb(0%,0%,0%);stroke-opacity:1;stroke-miterlimit:10;" d="M 98.3125 125.945312 L 101.03125 138.898438 "/>
<path style="fill:none;stroke-width:1.2;stroke-linecap:butt;stroke-linejoin:miter;stroke:rgb(0%,0%,100%);stroke-opacity:1;stroke-miterlimit:10;" d="M 101.03125 138.898438 L 103.75 151.855469 "/>
<path style=" stroke:none;fill-rule:nonzero;fill:rgb(100%,100%,100%);fill-opacity:1;" d="M 99.75 145.355469 L 107.75 145.355469 L 107.75 158.355469 L 99.75 158.355469 Z M 99.75 145.355469 "/>
<g style="fill:rgb(0%,0%,100%);fill-opacity:1;">
  <use xlink:href="#glyph0-3" x="99.75" y="155.256836"/>
</g>
<path style="fill:none;stroke-width:1.2;stroke-linecap:butt;stroke-linejoin:miter;stroke:rgb(0%,0%,0%);stroke-opacity:1;stroke-miterlimit:10;" d="M 80.789062 165.03125 L 61.160156 147.269531 "/>
<path style="fill:none;stroke-width:1;stroke-linecap:butt;stroke-linejoin:miter;stroke:rgb(0%,0%,0%);stroke-opacity:1;stroke-miterlimit:10;" d="M 61.160156 147.269531 L 61.160156 147.269531 M 58.160156 147.363281 L 58.375 148.386719 M 55.164062 147.460938 L 55.589844 149.503906 M 52.164062 147.558594 L 52.804688 150.617188 M 49.164062 147.652344 L 50.023438 151.734375 M 46.167969 147.75 L 47.238281 152.851562 M 43.167969 147.847656 L 44.453125 153.96875 M 40.171875 147.945312 L 41.667969 155.085938 M 37.171875 148.039062 L 38.886719 156.203125 M 34.289062 148.132812 L 36.210938 157.277344 "/>
<path style="fill:none;stroke-width:1.2;stroke-linecap:butt;stroke-linejoin:miter;stroke:rgb(0%,0%,0%);stroke-opacity:1;stroke-miterlimit:10;" d="M 61.160156 147.269531 L 71.988281 123.109375 "/>
<path style=" stroke:none;fill-rule:nonzero;fill:rgb(100%,100%,100%);fill-opacity:1;" d="M 18.25 146.207031 L 35.25 146.207031 L 35.25 159.207031 L 18.25 159.207031 Z M 18.25 146.207031 "/>
<g style="fill:rgb(100%,0%,0%);fill-opacity:1;">
  <use xlink:href="#glyph0-2" x="18.25" y="156.108398"/>
  <use xlink:href="#glyph0-1" x="26.274414" y="156.108398"/>
</g>
<path style=" stroke:none;fill-rule:nonzero;fill:rgb(0%,0%,0%);fill-opacity:1;" d="M 71.988281 123.109375 L 62.863281 97.824219 L 54.757812 102.476562 Z M 71.988281 123.109375 "/>
<path style="fill:none;stroke-width:1.2;stroke-linecap:butt;stroke-linejoin:miter;stroke:rgb(0%,0%,0%);stroke-opacity:1;stroke-miterlimit:10;" d="M 71.988281 123.109375 L 98.3125 125.945312 "/>
<path style=" stroke:none;fill-rule:nonzero;fill:rgb(100%,100%,100%);fill-opacity:1;" d="M 41.8125 93.648438 L 58.8125 93.648438 L 58.8125 106.648438 L 41.8125 106.648438 Z M 41.8125 93.648438 "/>
<g style="fill:rgb(100%,0%,0%);fill-opacity:1;">
  <use xlink:href="#glyph0-2" x="41.8125" y="103.549805"/>
  <use xlink:href="#glyph0-1" x="49.836914" y="103.549805"/>
</g>
<path style="fill:none;stroke-width:1.2;stroke-linecap:butt;stroke-linejoin:miter;stroke:rgb(0%,0%,0%);stroke-opacity:1;stroke-miterlimit:10;" d="M 149.363281 147.179688 L 173.519531 158.007812 "/>
<path style="fill:none;stroke-width:1.2;stroke-linecap:butt;stroke-linejoin:miter;stroke:rgb(0%,0%,0%);stroke-opacity:1;stroke-miterlimit:10;" d="M 149.230469 153.945312 L 168.554688 162.609375 "/>
<path style="fill:none;stroke-width:1.2;stroke-linecap:butt;stroke-linejoin:miter;stroke:rgb(0%,0%,0%);stroke-opacity:1;stroke-miterlimit:10;" d="M 173.519531 158.007812 L 194.976562 142.503906 "/>
<path style="fill:none;stroke-width:1.2;stroke-linecap:butt;stroke-linejoin:miter;stroke:rgb(0%,0%,0%);stroke-opacity:1;stroke-miterlimit:10;" d="M 194.976562 142.503906 L 207.054688 147.917969 "/>
<path style="fill:none;stroke-width:1.2;stroke-linecap:butt;stroke-linejoin:miter;stroke:rgb(0%,0%,100%);stroke-opacity:1;stroke-miterlimit:10;" d="M 207.054688 147.917969 L 219.136719 153.332031 "/>
<path style="fill:none;stroke-width:1.2;stroke-linecap:butt;stroke-linejoin:miter;stroke:rgb(0%,0%,0%);stroke-opacity:1;stroke-miterlimit:10;" d="M 199.941406 137.902344 L 209.605469 142.234375 "/>
<path style="fill:none;stroke-width:1.2;stroke-linecap:butt;stroke-linejoin:miter;stroke:rgb(0%,0%,100%);stroke-opacity:1;stroke-miterlimit:10;" d="M 209.605469 142.234375 L 219.269531 146.566406 "/>
<path style="fill:none;stroke-width:1.2;stroke-linecap:butt;stroke-linejoin:miter;stroke:rgb(0%,0%,0%);stroke-opacity:1;stroke-miterlimit:10;" d="M 192.277344 116.167969 L 194.976562 142.503906 "/>
<path style="fill:none;stroke-width:1.2;stroke-linecap:butt;stroke-linejoin:miter;stroke:rgb(0%,0%,100%);stroke-opacity:1;stroke-miterlimit:10;" d="M 219.136719 153.332031 L 229.863281 145.578125 "/>
<path style="fill:none;stroke-width:1.2;stroke-linecap:butt;stroke-linejoin:miter;stroke:rgb(0%,0%,0%);stroke-opacity:1;stroke-miterlimit:10;" d="M 229.863281 145.578125 L 240.59375 137.828125 "/>
<path style=" stroke:none;fill-rule:nonzero;fill:rgb(100%,100%,100%);fill-opacity:1;" d="M 215.136719 146.832031 L 223.136719 146.832031 L 223.136719 159.832031 L 215.136719 159.832031 Z M 215.136719 146.832031 "/>
<g style="fill:rgb(0%,0%,100%);fill-opacity:1;">
  <use xlink:href="#glyph0-3" x="215.136719" y="156.733398"/>
</g>
<path style="fill:none;stroke-width:1.2;stroke-linecap:butt;stroke-linejoin:miter;stroke:rgb(0%,0%,0%);stroke-opacity:1;stroke-miterlimit:10;" d="M 240.59375 137.828125 L 239.242188 124.660156 "/>
<path style="fill:none;stroke-width:1.2;stroke-linecap:butt;stroke-linejoin:miter;stroke:rgb(0%,0%,100%);stroke-opacity:1;stroke-miterlimit:10;" d="M 239.242188 124.660156 L 237.894531 111.492188 "/>
<path style="fill:none;stroke-width:1.2;stroke-linecap:butt;stroke-linejoin:miter;stroke:rgb(0%,0%,0%);stroke-opacity:1;stroke-miterlimit:10;" d="M 234.125 135.828125 L 233.046875 125.292969 "/>
<path style="fill:none;stroke-width:1.2;stroke-linecap:butt;stroke-linejoin:miter;stroke:rgb(0%,0%,100%);stroke-opacity:1;stroke-miterlimit:10;" d="M 233.046875 125.292969 L 231.964844 114.761719 "/>
<path style="fill:none;stroke-width:1.2;stroke-linecap:butt;stroke-linejoin:miter;stroke:rgb(0%,0%,0%);stroke-opacity:1;stroke-miterlimit:10;" d="M 240.59375 137.828125 L 252.671875 143.242188 "/>
<path style="fill:none;stroke-width:1.2;stroke-linecap:butt;stroke-linejoin:miter;stroke:rgb(0%,0%,100%);stroke-opacity:1;stroke-miterlimit:10;" d="M 252.671875 143.242188 L 264.75 148.65625 "/>
<path style="fill:none;stroke-width:1.2;stroke-linecap:butt;stroke-linejoin:miter;stroke:rgb(0%,0%,100%);stroke-opacity:1;stroke-miterlimit:10;" d="M 237.894531 111.492188 L 225.816406 106.078125 "/>
<path style="fill:none;stroke-width:1.2;stroke-linecap:butt;stroke-linejoin:miter;stroke:rgb(0%,0%,0%);stroke-opacity:1;stroke-miterlimit:10;" d="M 225.816406 106.078125 L 213.734375 100.660156 "/>
<path style=" stroke:none;fill-rule:nonzero;fill:rgb(100%,100%,100%);fill-opacity:1;" d="M 233.894531 104.992188 L 241.894531 104.992188 L 241.894531 117.992188 L 233.894531 117.992188 Z M 233.894531 104.992188 "/>
<g style="fill:rgb(0%,0%,100%);fill-opacity:1;">
  <use xlink:href="#glyph0-3" x="233.894531" y="114.893555"/>
</g>
<path style="fill:none;stroke-width:1.2;stroke-linecap:butt;stroke-linejoin:miter;stroke:rgb(0%,0%,0%);stroke-opacity:1;stroke-miterlimit:10;" d="M 213.734375 100.660156 L 192.277344 116.167969 "/>
<path style="fill:none;stroke-width:1.2;stroke-linecap:butt;stroke-linejoin:miter;stroke:rgb(0%,0%,0%);stroke-opacity:1;stroke-miterlimit:10;" d="M 215.238281 107.261719 L 198.074219 119.664062 "/>
<path style=" stroke:none;fill-rule:nonzero;fill:rgb(100%,100%,100%);fill-opacity:1;" d="M 253.75 140.15625 L 275.75 140.15625 L 275.75 157.15625 L 253.75 157.15625 Z M 253.75 140.15625 "/>
<g style="fill:rgb(0%,0%,100%);fill-opacity:1;">
  <use xlink:href="#glyph0-3" x="253.75" y="150.057617"/>
  <use xlink:href="#glyph0-2" x="261.733398" y="150.057617"/>
</g>
<g style="fill:rgb(0%,0%,100%);fill-opacity:1;">
  <use xlink:href="#glyph1-1" x="269.757812" y="154.94043"/>
</g>
</g>
</svg>

<svg xmlns="http://www.w3.org/2000/svg" xmlns:xlink="http://www.w3.org/1999/xlink" width="300pt" height="300pt" viewBox="0 0 300 300"><defs><symbol overflow="visible"><path d="M.547 1.938V-7.75h5.5v9.688zm.625-.61h4.266v-8.47H1.171zm0 0"/></symbol><symbol overflow="visible" id="a"><path d="M4.328-7.28c-.78 0-1.406.296-1.875.89-.46.585-.687 1.382-.687 2.39 0 1.012.226 1.813.687 2.406.47.586 1.094.875 1.875.875.79 0 1.414-.288 1.875-.874.457-.593.688-1.394.688-2.406 0-1.008-.23-1.805-.687-2.39-.46-.594-1.086-.89-1.875-.89zm0-.892c1.125 0 2.024.383 2.703 1.14C7.708-6.28 8.048-5.27 8.048-4c0 1.262-.34 2.273-1.016 3.03C6.353-.22 5.454.157 4.33.157S2.3-.22 1.625-.97c-.668-.75-1-1.757-1-3.03 0-1.27.332-2.28 1-3.03.676-.76 1.578-1.142 2.703-1.142zm0 0"/></symbol><symbol overflow="visible" id="b"><path d="M1.078-8.016h1.094v3.282H6.11v-3.282h1.077V0H6.11v-3.813H2.17V0H1.078zm0 0"/></symbol><symbol overflow="visible" id="c"><path d="M1.078-8.016h1.47l3.546 6.704v-6.704h1.062V0H5.688L2.124-6.703V0H1.078zm0 0"/></symbol><symbol overflow="visible"><path d="M.453 1.594v-7.938h4.5v7.938zm.5-.5h3.5v-6.938h-3.5zm0 0"/></symbol><symbol overflow="visible" id="d"><path d="M1.734-.75h3.094V0H.656v-.75c.344-.344.8-.805 1.375-1.39.583-.594.954-.973 1.11-1.14.282-.322.473-.595.58-.814.112-.226.17-.445.17-.656 0-.352-.12-.64-.36-.86-.24-.218-.557-.327-.952-.327-.28 0-.578.054-.89.156-.305.093-.633.24-.985.436v-.906c.352-.133.688-.238 1-.313.313-.082.598-.125.86-.125.675 0 1.218.172 1.624.516.407.344.61.797.61 1.36 0 .273-.055.53-.156.78-.105.243-.288.524-.546.845-.074.085-.31.328-.703.734-.398.406-.95.976-1.656 1.703zm0 0"/></symbol></defs><g><path fill="#fff" d="M0 0h300v300H0z"/><path d="M200.38 195.176l-12.083-5.418" stroke-width="1.2" stroke="#f00" stroke-miterlimit="10" fill="none"/><path d="M188.297 189.758l-12.078-5.414" stroke-width="1.2" stroke="#000" stroke-miterlimit="10" fill="none"/><path d="M192.38 188.676h17v13h-17zm0 0" fill="#fff"/><g fill="#f00"><use xlink:href="#a" x="192.379" y="198.577"/><use xlink:href="#b" x="200.779" y="198.577"/></g><path d="M176.22 184.344l-21.458 15.508M170.426 180.848l-17.164 12.402M173.52 158.008l2.7 26.336M154.762 199.852l-24.157-10.832M130.605 189.02l-2.7-26.336M136.53 185.75l-2.16-21.066M127.906 162.684l-12.078-5.414" stroke-width="1.2" stroke="#000" stroke-miterlimit="10" fill="none"/><path d="M115.828 157.27l-12.078-5.415" stroke-width="1.2" stroke="#00f" stroke-miterlimit="10" fill="none"/><path d="M127.906 162.684l21.457-15.504" stroke-width="1.2" stroke="#000" stroke-miterlimit="10" fill="none"/><path d="M103.75 151.855l-11.48 6.59" stroke-width="1.2" stroke="#00f" stroke-miterlimit="10" fill="none"/><path d="M92.27 158.445l-11.48 6.586M98.313 125.945l2.718 12.953" stroke-width="1.2" stroke="#000" stroke-miterlimit="10" fill="none"/><path d="M101.03 138.898l2.72 12.957" stroke-width="1.2" stroke="#00f" stroke-miterlimit="10" fill="none"/><path d="M99.75 145.355h8v13h-8zm0 0" fill="#fff"/><use xlink:href="#c" x="99.75" y="155.257" fill="#00f"/><path d="M80.79 165.03l-19.63-17.76" stroke-width="1.2" stroke="#000" stroke-miterlimit="10" fill="none"/><path d="M61.16 147.27m-3 .093l.215 1.024m-3.21-.926l.425 2.044m-3.426-1.945l.64 3.057m-3.64-2.965l.86 4.082m-3.856-3.984l1.07 5.102m-4.07-5.004l1.285 6.12m-4.28-6.023l1.495 7.14m-4.496-7.046l1.715 8.163m-4.598-8.07l1.92 9.144" stroke="#000" stroke-miterlimit="10" fill="none"/><path d="M61.16 147.27l10.828-24.16" stroke-width="1.2" stroke="#000" stroke-miterlimit="10" fill="none"/><path d="M18.25 146.207h17v13h-17zm0 0" fill="#fff"/><g fill="#f00"><use xlink:href="#b" x="18.25" y="156.108"/><use xlink:href="#a" x="26.274" y="156.108"/></g><path d="M71.988 123.11l-9.125-25.286-8.105 4.653zm0 0"/><path d="M71.988 123.11l26.325 2.835" stroke-width="1.2" stroke="#000" stroke-miterlimit="10" fill="none"/><path d="M41.813 93.648h17v13h-17zm0 0" fill="#fff"/><g fill="#f00"><use xlink:href="#b" x="41.813" y="103.55"/><use xlink:href="#a" x="49.837" y="103.55"/></g><path d="M149.363 147.18l24.157 10.828M149.23 153.945l19.325 8.664M173.52 158.008l21.457-15.504M194.977 142.504l12.078 5.414" stroke-width="1.2" stroke="#000" stroke-miterlimit="10" fill="none"/><path d="M207.055 147.918l12.082 5.414" stroke-width="1.2" stroke="#00f" stroke-miterlimit="10" fill="none"/><path d="M199.94 137.902l9.665 4.332" stroke-width="1.2" stroke="#000" stroke-miterlimit="10" fill="none"/><path d="M209.605 142.234l9.665 4.332" stroke-width="1.2" stroke="#00f" stroke-miterlimit="10" fill="none"/><path d="M192.277 116.168l2.7 26.336" stroke-width="1.2" stroke="#000" stroke-miterlimit="10" fill="none"/><path d="M219.137 153.332l10.726-7.754" stroke-width="1.2" stroke="#00f" stroke-miterlimit="10" fill="none"/><path d="M229.863 145.578l10.73-7.75" stroke-width="1.2" stroke="#000" stroke-miterlimit="10" fill="none"/><path d="M215.137 146.832h8v13h-8zm0 0" fill="#fff"/><use xlink:href="#c" x="215.137" y="156.733" fill="#00f"/><path d="M240.594 137.828l-1.352-13.168" stroke-width="1.2" stroke="#000" stroke-miterlimit="10" fill="none"/><path d="M239.242 124.66l-1.347-13.168" stroke-width="1.2" stroke="#00f" stroke-miterlimit="10" fill="none"/><path d="M234.125 135.828l-1.078-10.535" stroke-width="1.2" stroke="#000" stroke-miterlimit="10" fill="none"/><path d="M233.047 125.293l-1.082-10.53" stroke-width="1.2" stroke="#00f" stroke-miterlimit="10" fill="none"/><path d="M240.594 137.828l12.078 5.414" stroke-width="1.2" stroke="#000" stroke-miterlimit="10" fill="none"/><path d="M252.672 143.242l12.078 5.414M237.895 111.492l-12.08-5.414" stroke-width="1.2" stroke="#00f" stroke-miterlimit="10" fill="none"/><path d="M225.816 106.078l-12.082-5.418" stroke-width="1.2" stroke="#000" stroke-miterlimit="10" fill="none"/><path d="M233.895 104.992h8v13h-8zm0 0" fill="#fff"/><use xlink:href="#c" x="233.895" y="114.894" fill="#00f"/><path d="M213.734 100.66l-21.457 15.508M215.238 107.262l-17.164 12.402" stroke-width="1.2" stroke="#000" stroke-miterlimit="10" fill="none"/><path d="M253.75 140.156h22v17h-22zm0 0" fill="#fff"/><g fill="#00f"><use xlink:href="#c" x="253.75" y="150.058"/><use xlink:href="#b" x="261.733" y="150.058"/></g><use xlink:href="#d" x="269.758" y="154.94" fill="#00f"/></g></svg>
